svg/sport/backboard_fill.svg

<?xml version="1.0" encoding="UTF-8"?>
<svg width="24px" height="24px" viewBox="0 0 24 24" version="1.1" xmlns="http://www.w3.org/2000/svg" xmlns:xlink="http://www.w3.org/1999/xlink">
    <title>backboard_fill</title>
    <g id="Icon" stroke="none" stroke-width="1" fill="none" fill-rule="evenodd">
        <g id="Sport" transform="translate(-240.000000, -48.000000)">
            <g id="backboard_fill" transform="translate(240.000000, 48.000000)">
                <path d="M24,0 L24,24 L0,24 L0,0 L24,0 Z M12.5935,23.2578 L12.5819,23.2595 L12.5109,23.295 L12.4919,23.2987 L12.4767,23.295 L12.4057,23.2595 C12.3958,23.2564 12.387,23.259 12.3821,23.2649 L12.378,23.2758 L12.3609,23.7031 L12.3659,23.7235 L12.3769,23.7357 L12.4805,23.8097 L12.4953,23.8136 L12.5071,23.8097 L12.6107,23.7357 L12.6233,23.7197 L12.6267,23.7031 L12.6096,23.2758 C12.6076,23.2657 12.601,23.2593 12.5935,23.2578 Z M12.8584,23.1453 L12.8445,23.1473 L12.6598,23.2397 L12.6499,23.2499 L12.6472,23.2611 L12.6651,23.6906 L12.6699,23.7034 L12.6784,23.7105 L12.8793,23.8032 C12.8914,23.8069 12.9022,23.803 12.9078,23.7952 L12.9118,23.7812 L12.8777,23.1665 C12.8753,23.1546 12.8674,23.147 12.8584,23.1453 Z M12.143,23.1473 C12.1332,23.1424 12.1222,23.1453 12.1156,23.1526 L12.1099,23.1665 L12.0758,23.7812 C12.0751,23.7927 12.0828,23.8019 12.0926,23.8046 L12.1083,23.8032 L12.3092,23.7105 L12.3186,23.7024 L12.3225,23.6906 L12.3404,23.2611 L12.3372,23.2485 L12.3278,23.2397 L12.143,23.1473 Z" id="MingCute" fill-rule="nonzero"></path>
                <path d="M4,4 C2.89543,4 2,4.89543 2,6 L2,16 C2,17.1046 2.89543,18 4,18 L8.65275,18 L9.01349,20.1644 C9.07507,20.5339 9.33799,20.838 9.69471,20.9523 C10.0514,21.0666 10.4421,20.972 10.707,20.7071 L10.9999,20.4142 L11.2928,20.7071 C11.6833,21.0977 12.3165,21.0977 12.707,20.7071 L12.9999,20.4142 L13.2928,20.7071 C13.5576,20.972 13.9483,21.0666 14.3051,20.9523 C14.6618,20.838 14.9247,20.5339 14.9863,20.1644 L15.347,18 L20,18 C21.1046,18 22,17.1046 22,16 L22,6 C22,4.89543 21.1046,4 20,4 L4,4 Z M15.5138,17 L15.8471,15.0002 L16,15.0002 C16.5523,15.0002 17,14.5524 17,14.0002 C17,13.4479 16.5523,13.0002 16,13.0002 L15.0164,13.0002 C15.0046,12.9999 14.9929,12.9999 14.9812,13.0002 L9.01884,13.0002 C9.00711,12.9999 8.99535,12.9999 8.98356,13.0002 L8,13.0002 C7.44772,13.0002 7,13.4479 7,14.0002 C7,14.5524 7.44772,15.0002 8,15.0002 L8.15287,15.0002 L8.48618,17 L15.5138,17 Z M9,8 C8.44772,8 8,8.44772 8,9 L8,11 C8,11.5523 8.44772,12 9,12 C9.55228,12 10,11.5523 10,11 L10,10 L14,10 L14,11 C14,11.5523 14.4477,12 15,12 C15.5523,12 16,11.5523 16,11 L16,9 C16,8.44772 15.5523,8 15,8 L9,8 Z" id="形状" fill="#09244B"></path>
            </g>
        </g>
    </g>
</svg>

<svg xmlns="http://www.w3.org/2000/svg" width="24" height="24"><g fill="none" fill-rule="evenodd"><path d="M24 0v24H0V0h24ZM12.594 23.258l-.012.002-.071.035-.02.004-.014-.004-.071-.036c-.01-.003-.019 0-.024.006l-.004.01-.017.428.005.02.01.013.104.074.015.004.012-.004.104-.074.012-.016.004-.017-.017-.427c-.002-.01-.009-.017-.016-.018Zm.264-.113-.014.002-.184.093-.01.01-.003.011.018.43.005.012.008.008.201.092c.012.004.023 0 .029-.008l.004-.014-.034-.614c-.003-.012-.01-.02-.02-.022Zm-.715.002a.023.023 0 0 0-.027.006l-.006.014-.034.614c0 .012.007.02.017.024l.015-.002.201-.093.01-.008.003-.011.018-.43-.003-.012-.01-.01-.184-.092Z"/><path fill="#09244B" d="M4 4a2 2 0 0 0-2 2v10a2 2 0 0 0 2 2h4.653l.36 2.164a1 1 0 0 0 1.694.543l.293-.293.293.293a1 1 0 0 0 1.414 0l.293-.293.293.293a1 1 0 0 0 1.693-.543L15.347 18H20a2 2 0 0 0 2-2V6a2 2 0 0 0-2-2H4Zm11.514 13 .333-2H16a1 1 0 0 0 0-2H8a1 1 0 1 0 0 2h.153l.333 2h7.028ZM9 8a1 1 0 0 0-1 1v2a1 1 0 1 0 2 0v-1h4v1a1 1 0 1 0 2 0V9a1 1 0 0 0-1-1H9Z"/></g></svg>
